X:1
T:Sortez mes pleurs
T:Sortez mes pleurs
T:Jean de Castro
T:Source : Livre de chansons à 3 parties---Paris---A.le Roy & R.Ballard---1575. Editor : André Vierendeels (21/09/15).
T:Notes : Original clefs : C1, C3, C4 Editorial accidentals above the staff
C:Jean de Castro
%%score [ 1 2 3 ]
L:1/8
Q:1/4=80
M:2/2
K:F
V:1 treble nm="Superius" snm="S"
V:2 treble nm="Altus" snm="A"
V:3 treble-8 nm="Tenor" snm="T"
V:1
 z8 | z8 | z8 | d8- | d8 | c8- | c8 | B8- | B8 | A8 | z4 A4- | A2 G2 F4 | E4 E4 | D2 A2 AGFE | %14
w: |||Sor-||tez|_|mes|_|pleurs,|sor-||tez mes|pleurs, ha- tez vous de des-|
 D2 D2 z2 d2 | dcBA G2 G2 | z2 G2 GFED | C2 C2 z2 c2 | cBAG F2 F2 | z2 F2 G4- | G4 E4 | ^F4 z2 A2 | %22
w: cen- dre, ha-|tez vous de des- cen- dre,|ha- tez vous de des-|cen- dre, ha-|tez vous de des- * dre,|des- sus|_ le|feu qui|
 B2 B2 A2 G2 | F4 A4 | B2 A2 A2 G2 | A4 z2 d2- | d2 c4 B2 | A2 c4 B2- | B2 A2 G2 G2 | ^F4 A4- | %30
w: me con- su- m'et|ard, qui|me con- su- m'et|ard, où|_ mon se-|cours ar- ri|_ ve- ra si|tard, que|
 A2 G4 F2 | A4 z2 D2 | E4 ^F4 | G4 z2 A2 | =B4 c4 | d4 B4 | A4 G4 | ^F2 F2 G4 | F4 A4- | A2 G4 F2 | %40
w: _ ce- pen-|dant, que|ce- pen-|dant, que-|ce- pen-|dant je|se- ray|mis en cen-|dre, que|_ ce- pen-|
 A4 z2 D2 | E4 ^F4 | G4 z2 A2 | =B4 c4 | d3 c B2 B2 | A2 G2 A4 | !fermata!=B8 |] %47
w: dant, que|ce- pen-|dant, que|ce- pen-|dant je se- ray|mis en cen-|dre.|
V:2
 z8 | G8 | F4 E4 | D8 | z4 B4 | A4 A4 | G4 z4 | G8- | G8 | F8- | F8 | E4 D4- | %12
w: |Sor-|tez mes|pleurs,|sor-|tez mes|pleurs,|sor-||tez|_|mes _|
"^-natural" D2 ^CB, C4 | D4 z2 A2 | AGFE D2 D2 | z2 D2 DCB,A, | G,2 G,2 z2 G2 | GFED C2 C2 | %18
w: _ _ _ _|pleurs ha-|tez vous de des- cen- dre,|ha- tez vous de des-|cen- dre, ha-|tez vous de des- cen- dre,|
 z2 F2 FEDC | B,4 B,2 D2 | D4 ^C4 | D4 z2 ^F2 |"^-natural" G2 G2 F2 E2 | D4 F4 | F2 E2 F2 D2 | %25
w: ha- tez vous de des-|cen- dre, des-|sus le|feu qui|me con- su- m'et|ard, qui|me con- su- m'et|
 C2 F2 E2 D2 | E4 G4 | C2 F2 D3 E | F2 D2 B,2 G,2 | A,4 D4 | C4 B,4 | A,4 G,4 | C4 D4 | %33
w: ard, où mon se-|cours ar-|ri- ve- ra _|_ _ _ si|tard, que|ce- pen-|dant, que|se- pen-|
 G,4 z2 D2- |"^-natural" D2 E4 F2- | F2 G2 z2 G2 | F4 D2 C2 | z2 A,2 G,4 | A,4 D4 | C4 B,4 | %40
w: dant, que|_ ce pen-|* dant je|se- ray mis|en cen-|dre, que|ce- pen-|
 A,4 G,4 | C4 D4 | G,4 z2 D2- | D2 E4 F2- | F2 G2 z2 G2 | ^F2 G3 F/E/ F2 | !fermata!G8 |] %47
w: dant, que|ce- pen-|dant- je|_ se- ray|_ mis en|cen- * * * *|dre.|
V:3
 d8 | c4 B4 | A8 | z4 G4 | ^F4 G4 | A4 f4 | e4 f4 | g4 G4 | G2 A2 B2 c2 | d4 D2 E2 | %10
w: Sor-|tez mes|pleurs,|sor-|tez mes|pleurs, sor-|tez mes|pleurs, sor-|tez _ _ _|_ mes _|
"^-natural" F2 G2 A2 B2 | ^c4 d4 | A2 A2 A2 A2 | =B2 d2 A2 D2 | z2 d2 dcBA | G2 G2 z2 G2 | %16
w: _ _ _ _||pleurs, ha- tez vous|de des- cen- dre,|ha- tez vous de des-|cen- dre, ha-|
 GFED C2 C2 | z2 c2 cBAG | F4 B4 | z2 B2 G4- | G4 A4 | D8 | z8 | z4 d4 | d2 ^c2 d2 B2 | %25
w: tez vous de des- cen- dre,|ha- tez vous de des-|cen- dre,|des- sus|_ le|feu||qui|me con- su- m'et|
 A2 d2 c2 B2 |"^-natural" A4 G4 | F4 G4 | D4 _E4 | D8 | z4 d4 | c4 B4 | A4 z2 D2 | E4 ^F4 | %34
w: ard, où mon se-|cours ar-|ri- ve-|ra trop|tard,|que|ce- pen-|dant, que|ce- pen-|
 G4 z2 A2 | B4 G4 | d2 D2 G2 C2 | D2 D2 _E4 | D8 | z4 d4 | c4 B4 | A4 z2 D2 | E4 ^F4 | G4 z2 A2 | %44
w: dant que-|ce- pen-|dant je se- ray|mis en cen-|dre,|que|ce- pen-|dant, que|ce- pen-|dant je|
 B4 G4 | D2 _E2 D4 | !fermata!G8 |] %47
w: se- ray|mis en cen-|dre.|

